X: 143
T: Ang Nang                                 (Name)
%%abc-version 2.0
%%abcx-abcm2ps-target-version 5.9.1 (29 Sep 2008)
%%abc-creator hum2abc beta
%%abcx-conversion-date 2013/10/02 07:44:27
%%abc-edited-by Helmut Schaffrath
%%humdrum-veritas 2941766623
%%humdrum-veritas-data 2784521000
%%continueall 1
%%barnumbers 0
L: 1/8
M: 2/4
K: C
A A A G [I:setbarnb 1]| 
E E E A, | 
A A A G | 
E2z2 | 
A A A G | 
E C C A, | 
D D C G, | 
A,2z2 |]  



